X:1
T:Scatter Kind Words All Around You
T:Scatter Kind Words All Around You
T:William Howard Doane
T:Frances Jane (Fanny) Crosby, 1873, alt.
T:Public Domain Courtesy of the Cyber Hymnal™
C:William Howard Doane
Z:Public Domain
Z:Courtesy of the Cyber Hymnal™
%%score ( 1 2 ) ( 3 4 )
L:1/8
Q:1/4=93
M:6/8
K:Bb
V:1 treble 
V:2 treble 
V:3 bass 
V:4 bass 
V:1
 [DF][CE][B,D] [B,D][CE][DF] | [DB]3 [DF]2 [DB] | [Fd][=E^c][Fd] [FB][FA][FB] | [Fc]3- [Fc]2 [Fc] | %4
w: 1.~Scat- ter kind words all a-|round you; Some|heart in its sor- row will|stay: * And|
w: 2.~Scat- ter kind words by the|way- side, Nor|fan- cy your la- bor in|vain; * They|
w: 3.~Scat- ter kind words to the|lone- ly, The|friend- less, the weak and op-|pressed; * Go|
w: 4.~Scat- ter kind words all a-|round you; Per-|chance, when your mis- sion is|o’er, * The|
 [Fe][Fd][Fe] [Fc][Fd][Fe] | [Fd]3 !fermata![FB]2 [Fd] | [Ec][EF][Ec] [Ec][EF][Ed] | %7
w: catch- ing the bright beam- ing|trea- sures, Find|com- fort for ma- ny a|
w: come like the beau- ti- ful|sun- light; They|fall and they cheer like the|
w: scat- ter kind words to the|er- ring; In|God shall your la- bor be|
w: seed you have dropped in a|mo- ment May|bloom on e- ter- ni- ty’s|
 [DB]3- [DB]2 ||"^Refrain" [Fd] | [Fe][Fd][Fe] [Fc][Fd][Fe] | [Fd][=E^c][Fd] [FB]2 [Fd] | %11
w: day. *||||
w: rain. *||||
w: blest. *||||
w: shore. *||||
 [Fc][FB][FA] [=EG][Ed][Ec] | F6 | [DF][EG][CA] [DB]3 | [FB][Fc][Bd] !fermata![Be]2 [B=e] | %15
w: ||||
w: ||||
w: ||||
w: ||||
 [Bf][Bd][FB] [Fc][EF][Fd] | [FB]3- [FB]2 z |] %17
w: ||
w: ||
w: ||
w: ||
V:2
 x6 | x6 | x6 | x6 | x6 | x6 | x6 | x5 || x | x6 | x6 | x6 | F6 | x6 | x6 | x6 | x6 |] %17
V:3
 [B,,B,][B,,B,][B,,B,] [B,,B,][B,,B,][B,,B,] | [B,,F,]3 [B,,B,]2 [B,,B,] | %2
w: ~ ~ ~ ~ ~ ~|~ ~ ~|
 [B,,B,][B,,B,][B,,B,] [D,B,][D,B,][D,B,] | [F,A,]3- [F,A,]2 [F,A,] | %4
w: ~ ~ ~ ~ ~ ~|~ * ~|
 [F,C][F,=B,][F,C] [F,A,][F,_B,][F,C] | [B,,B,]3 !fermata![B,,D]2 [B,,B,] | %6
w: ~ ~ ~ ~ ~ ~|~ ~ ~|
 [F,A,][F,A,][F,A,] [F,A,][F,A,][F,A,] | [B,,B,]3- [B,,B,]2 || B, | %9
w: ~ ~ ~ ~ ~ ~|~ *|Then|
 [F,C][F,=B,][F,C] [F,A,][F,_B,][F,C] | [B,,B,][B,,B,][B,,B,] [B,,D]2 [B,,B,] | %11
w: scat- ter kind words; They will|ne- ver be lost; Re-|
 [C,A,][C,D][C,C] [C,B,][C,B,][C,B,] | [F,A,]6 | [B,,B,][B,,B,][B,,B,] [B,,B,]3 | %14
w: mem- ber your mis- sion be-|low;|Scat- ter kind words,|
 [B,D][A,E][_A,F] !fermata![G,E]2 [_G,^C] | [F,D][F,F][F,D] [F,E][F,A,][F,E] | %16
w: Scat- ter kind words, Wher-|ev- er, wher- ev- er you|
 (z F,D, [B,,B,D]2) z |] %17
w: |
V:4
 x6 | x6 | x6 | x6 | x6 | x6 | x6 | x5 || B, | x6 | x6 | x6 | x6 | x6 | x6 | x6 | [B,D]3 x3 |] %17

